X:1
T:Fib
M:4/4
L:1/4
Q:1/4=212
K:C
% op ,
A,CEC & Acec |
% op var
DB,G,B, & BdGB |
% id num
DB,G,z & dBGz |
W: num
% op {
EFB,F & fBfB |
% op if
EFB,F & ffBe |
% op (
CA,F,A, & cAcA |
% id num
CA,F,z & cAFz |
W: num
% op <=
A,CEC & cAAA |
% num 1
A,CEA, & czzz |
% op )
DB,G,B, & dBBd |
% op {
DB,G,B, & BGBG |
% op return
EFB,F & BefB |
% op (
EFB,F & efef |
% op ,
CA,F,A, & cAFA |
% id num
CA,F,z & cAFz |
W: num
% op )
A,CEC & AccA |
% op }
A,CEC & ceec |
% op return
DB,G,B, & GdBG |
% op (
DB,G,B, & dBdB |
% op ,
EFB,F & efBf |
% call Fib
EFB,B, & % op +
CA,F,A, & cFcF |
% call Fib
CA,F,F, & % op )
A,CEC & AccA |
% op }
A,CEC & ceec |

